assets/icons/rocket-24.svg

<svg width="24" height="24" viewBox="0 0 24 24" fill="none" xmlns="http://www.w3.org/2000/svg">
<path fill-rule="evenodd" clip-rule="evenodd" d="M4.0956 4.116C4.18257 4.96282 4.34579 6.14281 4.64379 7.32462C4.96119 8.58331 5.40646 9.74002 5.99765 10.5121C6.53915 11.2192 7.4649 11.9491 8.421 12.5769C9.35671 13.1913 10.2335 13.6516 10.6018 13.8377C11.0577 14.0679 11.2816 14.5974 11.1312 15.0891C10.786 16.2175 11.0003 17.3782 11.9912 18.5578C11.9981 18.4568 12.0082 18.3558 12.0215 18.2548C12.1555 17.2365 12.6042 16.3244 13.2765 15.445C13.5802 15.0478 13.9327 14.6529 14.3282 14.2535C14.7237 13.8541 15.1148 13.4982 15.5082 13.1916C16.3792 12.5127 17.2825 12.0597 18.2909 11.9243C18.391 11.9109 18.491 11.9007 18.5911 11.8937C17.3637 10.8423 16.1508 10.6506 14.9596 11.0924C14.4641 11.2761 13.9108 11.0567 13.6716 10.5815C13.4512 10.1436 12.9916 9.27204 12.3976 8.36435C11.7913 7.43803 11.0992 6.55903 10.43 6.03657C9.6654 5.43962 8.51984 4.99002 7.27329 4.66953C6.10286 4.36862 4.93425 4.20381 4.0956 4.116ZM2.01012 4.20569C1.88562 2.93637 2.92735 1.88451 4.18442 2.01022C5.08756 2.10053 6.42378 2.2799 7.78745 2.63049C9.13024 2.97572 10.6035 3.51229 11.7046 4.37203C12.6507 5.11068 13.4948 6.2244 14.1361 7.20429C14.5306 7.80709 14.869 8.39152 15.128 8.86506C17.0437 8.48543 18.8896 9.18851 20.4684 10.7827C21.1107 11.4312 21.5951 12.1839 21.9227 12.9941C22.0812 13.3863 21.9914 13.8362 21.6948 14.1357C21.3982 14.4352 20.9526 14.5259 20.5643 14.3658C19.7408 14.0263 19.1108 13.9369 18.5656 14.0101C18.4559 14.0248 18.3453 14.0467 18.2331 14.0765C18.5809 14.3387 18.9393 14.6553 19.2115 15.0115C19.54 15.4415 19.8095 16.004 20.0233 16.5313C20.2436 17.0744 20.4332 17.6522 20.5834 18.157C21.0189 19.6203 19.6433 21.0094 18.1941 20.5696C17.6942 20.4179 17.122 20.2265 16.5841 20.0041C16.0618 19.7881 15.5048 19.516 15.079 19.1843C14.7261 18.9094 14.4126 18.5476 14.1529 18.1963C14.1234 18.3097 14.1017 18.4214 14.0871 18.5321C14.0146 19.0826 14.1032 19.7188 14.4394 20.5503C14.5979 20.9424 14.5081 21.3923 14.2115 21.6918C13.9149 21.9913 13.4693 22.082 13.0809 21.9219C12.2786 21.5912 11.5331 21.1021 10.8908 20.4535C9.39358 18.9417 8.6829 17.1811 8.94547 15.337C8.48558 15.0843 7.89839 14.7436 7.28498 14.3408C6.27962 13.6807 5.11162 12.7948 4.34916 11.7991C3.49771 10.6872 2.96631 9.19966 2.62441 7.84379C2.2772 6.46685 2.09956 5.11762 2.01012 4.20569ZM15.3541 16.2156C15.4161 16.3224 15.4847 16.4361 15.5587 16.5519C15.8301 16.9764 16.1143 17.3333 16.3518 17.5183C16.5539 17.6758 16.9046 17.8629 17.3738 18.0569C17.7317 18.2049 18.1203 18.3416 18.4958 18.4617C18.3769 18.0825 18.2415 17.6901 18.095 17.3288C17.9028 16.8549 17.7175 16.5008 17.5616 16.2968C17.3783 16.057 17.0249 15.77 16.6044 15.496C16.4898 15.4212 16.3772 15.352 16.2715 15.2894C16.1198 15.4276 15.9634 15.578 15.8017 15.7413C15.6399 15.9047 15.4909 16.0625 15.3541 16.2156Z" fill="#F2F2F2"/>
</svg>

<svg xmlns="http://www.w3.org/2000/svg" width="24" height="24" viewBox="0 0 24 24"><path fill-rule="evenodd" d="M4.096 4.116c.087.847.25 2.027.548 3.209.317 1.258.762 2.415 1.354 3.187.541.707 1.467 1.437 2.423 2.065a23.311 23.311 0 002.18 1.26c.457.23.68.76.53 1.252-.345 1.129-.13 2.29.86 3.469.007-.101.017-.202.03-.303.134-1.018.583-1.93 1.255-2.81.304-.397.657-.792 1.052-1.191.396-.4.787-.756 1.18-1.062.871-.68 1.774-1.132 2.783-1.268.1-.013.2-.023.3-.03-1.227-1.052-2.44-1.243-3.631-.802a1.038 1.038 0 01-1.288-.51 23.46 23.46 0 00-1.274-2.218c-.607-.926-1.299-1.805-1.968-2.327C9.665 5.44 8.52 4.99 7.273 4.67a22.555 22.555 0 00-3.177-.554zm-2.086.09A1.99 1.99 0 014.184 2.01c.904.09 2.24.27 3.603.62 1.343.346 2.817.882 3.918 1.742.946.739 1.79 1.852 2.431 2.832.395.603.733 1.188.992 1.661 1.916-.38 3.762.324 5.34 1.918a6.703 6.703 0 011.455 2.211 1.06 1.06 0 01-.228 1.142c-.297.3-.742.39-1.13.23-.824-.34-1.454-.43-2-.356-.11.015-.22.037-.332.066.348.263.706.58.979.935.328.43.598.993.811 1.52.22.543.41 1.121.56 1.626.436 1.463-.94 2.852-2.389 2.413-.5-.152-1.072-.343-1.61-.566-.522-.216-1.08-.488-1.505-.82-.353-.275-.666-.636-.926-.988a2.77 2.77 0 00-.066.336c-.072.55.016 1.187.352 2.018a1.06 1.06 0 01-.228 1.142c-.296.3-.742.39-1.13.23a6.628 6.628 0 01-2.19-1.469c-1.497-1.511-2.208-3.272-1.946-5.116a24.977 24.977 0 01-1.66-.996c-1.005-.66-2.173-1.546-2.936-2.542-.851-1.112-1.383-2.6-1.725-3.955a25.44 25.44 0 01-.614-3.638zm13.344 12.01c.062.106.13.22.205.336.271.424.555.781.793.966.202.158.553.345 1.022.539.358.148.746.285 1.122.405-.12-.38-.255-.772-.401-1.133-.192-.474-.377-.828-.533-1.032-.184-.24-.537-.527-.958-.801a9.014 9.014 0 00-.332-.207 12.687 12.687 0 00-.918.927z"/></svg>
